X: 64
T:Loch Leven Castle
T:Humours of Tuaimgreine
R:Reel
O:Ireland
M:4/4
L:1/8
Q:1/2=112
K:Am
cB|A2AB AGEG|AGAB cBcd|eaga gede|c2G2 G2cB|
A2AB AGEG|AGAB cBcd|eaga gede|c2A2 A2:|
eg|a2ab ageg|agab a2ge|dega gede|c2G2 G2eg|
a2ab ageg|agab a2ge|dega gede|c2A2 A2eg|
a2ab ageg|agab age^f|g^fga gede|c2G2 G2cB|
A2AB AGEG|AGAB cBcd|ea^ga =gede|c2A2 A2|]
